X:1
T:[ID 2-30]
T:[ID 2-30]
T:Bezeichnung standardisiert: Gesundheit Herr Nachbar; Waltzer oder Schleifer Tantz. In dieser Quelle auch als: Trinklied. Wenns immer so w\"ar; In dieser Quelle auch als: Waltzer In dieser Quelle auch als: Waltzer Gesundheit Herr Nachbar da Gl\"aschen ist leer In dieser Quelle auch als: Waltzer Wenns immer so w\"ar, so ists recht In anderer Quelle: 1. Walzer - W. M. Visser 1817 (Anm. S. Wascher);
T:Urheber unbekannt Datum in der hier transkribierten schriftlichen Quelle: 1767
C:Urheber unbekannt
C:Datum in der hier transkribierten schriftlichen Quelle: 1767
L:1/8
M:6/8
K:G
V:1 treble 
V:1
 D | GGD GGD | GG A/c/ B2 A | BBA BB A/c/ | BB c/A/ d2 :: d | dgB dcB | cDc cBd | dgB dcB | %9
 cDc cBA | BBB AAA | ^ccc d2 D | GG/A/ B/G/ EEE | cAF G2 d"^F" | c c/B/c/e/ dd/c/ B/d/ | %15
 c c/B/c/e/ d2 B | c c/B/c/e/ d2 ^c/d/ | BGD G3 :: d | ec/e/g/e/ e/d/c/B/A/G/ | F/G/A/B/c/d/ cBd | %21
 ec/e/g/e/ e/d/c/B/A/G/ | F/G/A/B/c/F/ G2 :| %23

